icons/assets/dark/lock.svg

<svg width="48" height="48" viewBox="0 0 48 48" fill="none" xmlns="http://www.w3.org/2000/svg">
<path d="M10 19.999V18.249C9.0335 18.249 8.25 19.0325 8.25 19.999H10ZM10 39.999H8.25C8.25 40.9655 9.0335 41.749 10 41.749V39.999ZM38 19.999H39.75C39.75 19.0325 38.9665 18.249 38 18.249V19.999ZM38 39.999V41.749C38.9665 41.749 39.75 40.9655 39.75 39.999H38ZM14 19.999H12.25L12.25 21.749H14V19.999ZM34 19.999V21.749H35.75V19.999H34ZM25.75 26.9629C25.75 25.9964 24.9665 25.2129 24 25.2129C23.0335 25.2129 22.25 25.9964 22.25 26.9629H25.75ZM22.25 32.9629C22.25 33.9294 23.0335 34.7129 24 34.7129C24.9665 34.7129 25.75 33.9294 25.75 32.9629H22.25ZM8.25 19.999V39.999H11.75V19.999H8.25ZM10 21.749H38V18.249H10V21.749ZM38 38.249H10V41.749H38V38.249ZM36.25 19.999V39.999H39.75V19.999H36.25ZM15.75 19.999C15.75 17.1884 16.6833 14.5431 18.2732 12.6356L15.5846 10.3947C13.4238 12.9873 12.25 16.4455 12.25 19.999H15.75ZM18.2732 12.6356C19.8554 10.7373 21.9255 9.75098 24 9.75098V6.25098C20.7701 6.25098 17.7532 7.79283 15.5846 10.3947L18.2732 12.6356ZM24 9.75098C26.0745 9.75098 28.1446 10.7373 29.7268 12.6356L32.4154 10.3947C30.2468 7.79283 27.2299 6.25098 24 6.25098V9.75098ZM29.7268 12.6356C31.3167 14.5431 32.25 17.1884 32.25 19.999H35.75C35.75 16.4455 34.5762 12.9873 32.4154 10.3947L29.7268 12.6356ZM34 18.249H14V21.749H34V18.249ZM22.25 26.9629V32.9629H25.75V26.9629H22.25Z" fill="#62646A"/>
</svg>

<svg width="48" height="48" fill="none" xmlns="http://www.w3.org/2000/svg"><path d="M10 19.999v-1.75a1.75 1.75 0 00-1.75 1.75H10zm0 20H8.25c0 .966.784 1.75 1.75 1.75v-1.75zm28-20h1.75a1.75 1.75 0 00-1.75-1.75v1.75zm0 20v1.75a1.75 1.75 0 001.75-1.75H38zm-24-20h-1.75v1.75H14v-1.75zm20 0v1.75h1.75v-1.75H34zm-8.25 6.964a1.75 1.75 0 10-3.5 0h3.5zm-3.5 6a1.75 1.75 0 103.5 0h-3.5zm-14-12.964v20h3.5v-20h-3.5zm1.75 1.75h28v-3.5H10v3.5zm28 16.5H10v3.5h28v-3.5zm-1.75-18.25v20h3.5v-20h-3.5zm-20.5 0c0-2.81.933-5.456 2.523-7.363l-2.688-2.241c-2.161 2.592-3.335 6.05-3.335 9.604h3.5zm2.523-7.363C19.855 10.737 21.925 9.75 24 9.75v-3.5c-3.23 0-6.247 1.542-8.415 4.144l2.688 2.24zM24 9.75c2.075 0 4.145.986 5.727 2.885l2.688-2.241C30.247 7.793 27.23 6.25 24 6.25v3.5zm5.727 2.885c1.59 1.907 2.523 4.552 2.523 7.363h3.5c0-3.553-1.174-7.012-3.335-9.604l-2.688 2.24zM34 18.249H14v3.5h20v-3.5zm-11.75 8.714v6h3.5v-6h-3.5z" fill="#62646A"/></svg>
